public/play-track.svg

<?xml version="1.0" encoding="UTF-8" standalone="no"?>
<!DOCTYPE svg PUBLIC "-//W3C//DTD SVG 1.1//EN" "http://www.w3.org/Graphics/SVG/1.1/DTD/svg11.dtd">
<!-- Created with Vectornator (http://vectornator.io/) -->
<svg height="100%" stroke-miterlimit="10" style="fill-rule:nonzero;clip-rule:evenodd;stroke-linecap:round;stroke-linejoin:round;" version="1.1" viewBox="0 0 24 24" width="100%" xml:space="preserve" xmlns="http://www.w3.org/2000/svg" xmlns:vectornator="http://vectornator.io" xmlns:xlink="http://www.w3.org/1999/xlink">
<defs/>
<g id="Untitled" vectornator:layerName="Untitled">
<path d="M17.3708 9.28642C18.8106 10.1862 19.5304 10.6361 19.7773 11.2122C19.9929 11.7152 19.9929 12.2847 19.7773 12.7878C19.5304 13.3638 18.8106 13.8137 17.3708 14.7136L10.6086 18.94C9.01065 19.9387 8.21167 20.4381 7.55233 20.385C6.97761 20.3388 6.45078 20.0469 6.107 19.584C5.7126 19.053 5.7126 18.1108 5.7126 16.2264L5.7126 7.77361C5.7126 5.88923 5.7126 4.94705 6.107 4.41602C6.45078 3.95314 6.97761 3.66115 7.55233 3.61494C8.21167 3.56194 9.01065 4.0613 10.6086 5.06002L17.3708 9.28642Z" fill="none" opacity="1" stroke="#000000" stroke-linecap="butt" stroke-linejoin="round" stroke-width="2.25" vectornator:layerName="path"/>
</g>
</svg>

<svg xmlns="http://www.w3.org/2000/svg" xmlns:vectornator="http://vectornator.io" xml:space="preserve" stroke-miterlimit="10" style="fill-rule:nonzero;clip-rule:evenodd;stroke-linecap:round;stroke-linejoin:round" viewBox="0 0 24 24"><g vectornator:layerName="Untitled"><path vectornator:layerName="path" fill="none" stroke="#000" stroke-linecap="butt" stroke-width="2.25" d="M17.37 9.286c1.44.9 2.16 1.35 2.407 1.926a2 2 0 0 1 0 1.576c-.247.576-.966 1.026-2.406 1.926l-6.762 4.226c-1.598.999-2.397 1.498-3.057 1.445a2 2 0 0 1-1.445-.801c-.394-.531-.394-1.473-.394-3.358V7.774c0-1.885 0-2.827.394-3.358a2 2 0 0 1 1.445-.801c.66-.053 1.459.446 3.057 1.445l6.762 4.226Z"/></g></svg>
